img/svg/tab-icons/resume-ico.svg

<svg width="24" height="24" viewBox="0 0 24 24" fill="#E0E0E0" xmlns="http://www.w3.org/2000/svg">
   <path d="M12.7947 16.7787L7.21912 16.7812C7.21912 16.7812 7.21893 16.7812 7.21875 16.7812C6.70111 16.7812 6.28143 16.3619 6.28125 15.8443C6.28088 15.3265 6.70056 14.9064 7.2182 14.9062L12.7938 14.9037H12.7941C13.3118 14.9037 13.7314 15.323 13.7316 15.8406C13.732 16.3585 13.3125 16.7783 12.7947 16.7787ZM11.5281 18.3256L7.2182 18.3281C6.70038 18.3285 6.28088 18.7485 6.28125 19.2662C6.28162 19.7838 6.70129 20.2031 7.21875 20.2031H7.2193L11.5292 20.2006C12.0471 20.2002 12.4666 19.7802 12.4662 19.2625C12.4658 18.7449 12.0461 18.3256 11.5287 18.3256C11.5285 18.3256 11.5283 18.3256 11.5281 18.3256ZM21.284 18.1512L15.7073 23.7228C15.7072 23.7228 15.7072 23.7228 15.7072 23.723L15.7068 23.7231C15.7057 23.7244 15.7042 23.7255 15.7029 23.7268C15.6824 23.7469 15.6612 23.7664 15.639 23.7845C15.6334 23.7892 15.6273 23.7931 15.6215 23.7977C15.6031 23.812 15.5847 23.8262 15.5652 23.8392C15.5601 23.8427 15.5546 23.8455 15.5493 23.8489C15.5288 23.8621 15.5081 23.8749 15.4865 23.8865C15.4828 23.8883 15.4792 23.89 15.4757 23.8918C15.4521 23.9039 15.4281 23.9156 15.4034 23.9258C15.4014 23.9268 15.3994 23.9273 15.3973 23.928C15.3712 23.9387 15.3446 23.9484 15.3173 23.9568C15.3151 23.9573 15.3129 23.9577 15.3109 23.9584C15.2838 23.9663 15.2565 23.9734 15.2287 23.9789C15.2225 23.9802 15.2161 23.9808 15.2097 23.9819C15.186 23.9861 15.1622 23.9901 15.1379 23.9927C15.1069 23.9958 15.0758 23.9974 15.0445 23.9974L6.28162 24C4.21344 24 2.53125 22.3178 2.53125 20.25V3.75C2.53125 1.68219 4.21344 0 6.28125 0H17.8074C19.875 0 21.5574 1.68219 21.5574 3.75L21.5585 12.7967C21.5585 13.3145 21.1388 13.7344 20.621 13.7344C20.1031 13.7344 19.6835 13.3147 19.6835 12.7971L19.6824 3.75018C19.6824 2.71619 18.8412 1.875 17.8074 1.875H6.28125C5.24744 1.875 4.40625 2.71619 4.40625 3.75V20.25C4.40625 21.2838 5.24744 22.125 6.28125 22.125L14.1068 22.1226V19.8307C14.1068 18.0214 15.5788 16.5494 17.3881 16.5494H20.6219C20.653 16.5494 20.6841 16.5511 20.7153 16.5542C20.7286 16.5555 20.7415 16.558 20.7546 16.5599C20.7717 16.5623 20.7887 16.5643 20.8057 16.5677C20.8217 16.5709 20.837 16.5753 20.8528 16.5793C20.8667 16.5828 20.8808 16.5857 20.8945 16.5901C20.9103 16.5948 20.9255 16.6007 20.9409 16.6062C20.9542 16.611 20.9678 16.6154 20.981 16.6208C20.9958 16.6271 21.0101 16.6342 21.0244 16.6412C21.0377 16.6474 21.0511 16.6533 21.0639 16.66C21.0784 16.6679 21.0921 16.6767 21.1062 16.6851C21.1183 16.6924 21.1306 16.6992 21.1425 16.7073C21.1591 16.7183 21.175 16.7307 21.191 16.7428C21.1992 16.7492 21.208 16.7549 21.2161 16.7617C21.2644 16.8012 21.3087 16.8455 21.3483 16.8939C21.3543 16.9014 21.3596 16.9094 21.3657 16.9171C21.3783 16.9338 21.3911 16.9503 21.4026 16.9677C21.4098 16.9783 21.4158 16.9894 21.4226 17.0004C21.4319 17.0156 21.4413 17.0306 21.4499 17.0464C21.4559 17.0579 21.4611 17.0696 21.4666 17.0812C21.4742 17.0973 21.4821 17.1132 21.4891 17.1297C21.4937 17.1409 21.4973 17.1522 21.5013 17.1634C21.5079 17.181 21.5145 17.1984 21.5198 17.2163C21.5231 17.2271 21.5255 17.2381 21.5283 17.2489C21.5332 17.2678 21.5383 17.2863 21.542 17.3053C21.5442 17.3168 21.5455 17.3286 21.5473 17.3401C21.5502 17.3586 21.5535 17.3771 21.5554 17.3959C21.557 17.4124 21.5572 17.4287 21.5579 17.4452C21.5585 17.4591 21.5599 17.4728 21.5599 17.4871C21.5599 17.5009 21.5585 17.5142 21.5579 17.5278C21.5572 17.5446 21.557 17.5616 21.5554 17.5785C21.5535 17.5977 21.55 17.6164 21.5471 17.6353C21.5453 17.6466 21.5442 17.658 21.542 17.6691C21.5381 17.6885 21.533 17.7072 21.5281 17.7261C21.5251 17.7367 21.5229 17.7475 21.5198 17.7581C21.5143 17.7762 21.5076 17.7938 21.5012 17.8114C21.4971 17.8226 21.4935 17.8337 21.4889 17.8449C21.4821 17.8614 21.4741 17.8773 21.4664 17.8934C21.4609 17.905 21.4557 17.9167 21.4497 17.928C21.4413 17.944 21.4318 17.959 21.4224 17.9742C21.4158 17.9852 21.4096 17.9962 21.4026 18.007C21.3907 18.0247 21.3776 18.0416 21.3646 18.0584C21.3589 18.0657 21.3539 18.0734 21.3481 18.0807C21.3278 18.1051 21.3063 18.1287 21.284 18.1512ZM15.9818 19.8307V20.798L18.3574 18.4244H17.3881C16.6126 18.4244 15.9818 19.0554 15.9818 19.8307ZM14.9912 13.125H9.00879C8.53912 13.125 8.09985 12.9161 7.80341 12.5517C7.50549 12.1857 7.38995 11.7105 7.48608 11.2478C7.75214 9.96661 8.54901 8.89893 9.61523 8.25476C9.25836 7.7666 9.04688 7.16547 9.04688 6.51562C9.04688 4.88727 10.3716 3.5625 12 3.5625C13.6284 3.5625 14.9531 4.88727 14.9531 6.51562C14.9531 7.16547 14.7416 7.7666 14.3846 8.25476C15.451 8.89893 16.2477 9.96661 16.5139 11.2478C16.61 11.7105 16.4943 12.1857 16.1966 12.5517C15.9001 12.9161 15.4609 13.125 14.9912 13.125ZM10.9219 6.51562C10.9219 7.11017 11.4055 7.59375 12 7.59375C12.5945 7.59375 13.0781 7.11017 13.0781 6.51562C13.0781 5.92108 12.5945 5.4375 12 5.4375C11.4055 5.4375 10.9219 5.92108 10.9219 6.51562ZM14.5699 11.25C14.1839 10.1981 13.1691 9.46875 12.0245 9.46875H11.9755C10.8309 9.46875 9.8161 10.1981 9.43011 11.25H14.5699Z"/>
</svg>

<svg width="24" height="24" fill="#E0E0E0" xmlns="http://www.w3.org/2000/svg"><path d="M12.795 16.779l-5.576.002a.937.937 0 010-1.875l5.575-.002a.937.937 0 010 1.875zm-1.267 1.547l-4.31.002a.938.938 0 000 1.875h.001l4.31-.002a.938.938 0 000-1.875zm9.756-.175l-5.577 5.572-.004.004a.942.942 0 01-.064.058l-.018.013a.96.96 0 01-.056.041l-.016.01a.922.922 0 01-.063.038l-.01.005a.973.973 0 01-.073.034l-.006.002a.938.938 0 01-.08.029l-.006.001a.958.958 0 01-.082.02l-.02.004a1.052 1.052 0 01-.165.015L6.282 24a3.754 3.754 0 01-3.75-3.75V3.75A3.754 3.754 0 016.281 0h11.525a3.754 3.754 0 013.75 3.75l.002 9.047a.938.938 0 01-1.876 0V3.75a1.877 1.877 0 00-1.876-1.875H6.281A1.877 1.877 0 004.406 3.75v16.5c0 1.034.841 1.875 1.875 1.875l7.826-.002V19.83a3.285 3.285 0 013.281-3.282h3.234c.031 0 .062.002.093.005l.04.006a.401.401 0 01.05.008l.048.011.041.011.047.016.04.015.043.02.04.019.042.025c.012.007.025.014.036.022.017.011.033.024.049.036l.025.019c.048.04.093.084.132.132l.018.023.037.05.02.033.027.046.017.035.022.049c.005.01.008.022.012.033.007.018.014.035.019.053l.008.033.014.056.005.035.008.056c.002.016.002.033.003.05l.002.041-.002.04a.412.412 0 01-.003.051l-.008.057-.005.034-.014.057-.008.032-.019.053-.012.034-.023.048-.016.035-.028.046c-.006.011-.012.022-.02.033a.474.474 0 01-.037.051l-.017.023c-.02.024-.042.048-.064.07zm-5.302 1.68v.967l2.375-2.374h-.969c-.775 0-1.406.631-1.406 1.407zm-.99-6.706H9.008a1.556 1.556 0 01-1.523-1.877 4.594 4.594 0 012.13-2.993 2.938 2.938 0 01-.57-1.74A2.956 2.956 0 0112 3.564a2.956 2.956 0 012.953 2.953c0 .65-.211 1.25-.568 1.739a4.595 4.595 0 012.129 2.993 1.556 1.556 0 01-1.523 1.877zm-4.07-6.61a1.08 1.08 0 002.156 0 1.08 1.08 0 00-2.156 0zm3.648 4.735a2.724 2.724 0 00-2.546-1.781h-.048c-1.145 0-2.16.73-2.546 1.781h5.14z"/></svg>
